X:0533
M:6/8
L:1/8
Q:3/8=124
K:E Minor
EFE    E2e|DED    D2d|EFE EEe|BcB BAF |
E/E/EE E2e|D/D/DD D2d|AFD DFD|ABA AGF:|

